X:1
T:Contes divins
T:L'Aubépine de St. Patrick
T:Contes divins
T:1. L'Aubépine de St. Patrick 
T:Holmès, Augusta
T:(Holmès)
T:Creative Commons copyright waiver (CC0 1.0 Universal)
T:Creative Commons copyright waiver (CC0 1.0 Universal)
T:Creative Commons copyright waiver (CC0 1.0 Universal)
T:Creative Commons copyright waiver (CC0 1.0 Universal)
T:Creative Commons copyright waiver (CC0 1.0 Universal)
C:Holmès, Augusta
Z:(Holmès)
Z:Creative Commons copyright waiver (CC0 1.0 Universal)
%%score 1 2
L:1/8
Q:1/4=92
M:4/4
K:F
V:1 treble nm="Voice - verse 1"
V:2 treble nm="Voice - verse 2"
V:1
"^Andante""^1re Strophe" z8 |: z8 | z8 | z8 | z8 | z8 | z8 | z8 | z8 | z8 | z8 | z8 | z8 | z8 | %14
w: ||||||||||||||
 z8 ||[M:2/4] z4 ||[M:4/4] z8 | z8 | z8 ||[M:2/4] z4 ||[M:4/4] z4 z2 !fermata!z C :: %21
w: ||||||2. Sui \-|
 F3/2 G/ A2- (3:2:2A2 c z2 | z8 | z8 | z8 | z8 | z8 | z8 | z8 | z8 | z8 | z8 | z8 | z8 | z8 || %35
w: la froi- dure _ et||||||||||||||
[M:2/4] z4 ||[M:4/4] z8 | z8 | z8 ||[M:2/4] z4 ||[M:4/4] z8 :| F3/2 G/ A2- (3:2:2A2 c (3(df) d | %42
w: ||||||bon Pa- trick _ l'ay- ant * plan-|
 c4- (3c A G F (G/A/) | c2 A F{FA} (G3 F) | F4- F2 z C | F3/2 G/ A2- (3:2:2A2 c (3(df) d | %46
w: té _ Le ra- meau de _|fleurs se dé- co- *|re! _ A|la No- ël, _ par grand' * bon-|
 c4- (3c A G (3F G A | c2 A2{GA} (G3 F) | F4- F z F3/2 F/ | c4 A G F3/2 A/ | c4 A G F3/2 A/ | %51
w: té, _ L'Au- bé- pi- ne fleu-|rit en- co- *|re! _ O Pa-|\- trick qui nous ai- mait|tant, Songe à ton Ir-|
 c2 G E{DE} (D3 C) | C4- C z z C | F3/2 G/ A2 (3:2:2A2 c (3(_df3/2) d/ | c4- (3c _A G (3F G A || %55
w: lan- de flé- tri- *|e, _ Qui|sans es- poir _ tou- jours * at-|tend _ Que sa gloi- re soit|
[M:2/4] c2 C2 ||[M:4/4] (D4 F4) | F8- | F2 z2 z4 |] %59
w: re- fleu-|ri- *|e!|_|
V:2
"^2e Strophe" z8 |: F3/2 G/ A2- (3:2:2A2 c (3(df3/2) d/ | c4- (3c A G (3F G A | c2 A2{GA} (G3 F) | %4
w: |\- vant le vol _ des go- * ë|lands _ Il ga- gna l'o- ra-|geu- se Loi- *|
w: ||||
 F4- F2 z C | F3/2 G/ A2- (3:2:2A2 c (3(df3/2) d/ | c4- (3c A G (3F G A | (c2 A) F{FA} (G3 F) | %8
w: \- re; _ Un|vieux pas- seur _ aux bras * trem-|blants _ At- ten- dait dans sa|bar- * que noi- *|
w: ||||
 F4- F2 F3/2 F/ | c4 A G F3/2 A/ | c4 A G F3/2 A/ | c2 G E{DE} (D3 C) | C4- C z z C | %13
w: \- re. _ "O pas-|seur," dit le Fils du|Jour, "C'est au nom du|ciel que j'ar- ri- *|\- ve; _ Au|
w: |||||
 (F2 G) A c _d f3/2 d/ | _c4- (3c _A G (3F G A ||[M:2/4] c2 C2 ||[M:4/4] (D4 F4) | F4- F z z2 | %18
w: nom _ de l'é- ter- nel a-|mour _ Con- duis moi vers la|pâ- le|ri- *|ve!" _|
w: |||||
 z8 ||[M:2/4] z4 ||[M:4/4] z4 z2 !fermata!z C :: F3/2 G/ A2- (3:2:2A2 c (3df d | %22
w: ||3. Sous|\- lors le Saint _ sur les _ flots|
w: ||||
 c4- (3c A G (3F G A | c2 A2{GA} (G3 F) | F4- F2 z C | F3/2 G/ A2- (3:2:2A2 A (3(df3/2) d/ | %26
w: verts _ E- ten- dit son man-|teau de bu- *|\- re; _ Un|Au- bé- pin _ char- gé _ d'hi-|
w: ||||
 c4- (3c A G (3F G A | c2 A2{GA} (G3 F) | F4- F z F3/2 F/ | c4 A G F3/2 A/ | c4 A G F3/2 A/ | %31
w: vers, _ Lui four- nit u- ne|ra- me sû- *|re, _ _ _||bord En lou- ant le|
w: ||* * Il vo-|gua jus- qu'à l'au- tre||
 c2 G E (D3 C) | C4- C2 z C | F2 G A c2 (3(_df) d | c4- c z/"^sans presser" _A/ G/ F/ G/ A/ || %35
w: Maî- tre des An- *|ges _ Qui|sait a- me- ner à _ bon|port _ Tous ceux qui chan- tent|
w: ||||
[M:2/4] c2 C2 ||[M:4/4] (D4 F4) | F4- F z z2 | z8 ||[M:2/4] z4 ||[M:4/4] z4 z2 z C :| z8 | z8 | %43
w: ses lou-|an- *|ges _|||5. Le|||
w: ||||||||
 z8 | z8 | z8 | z8 | z8 | z8 | z8 | z8 | z8 | z8 | z8 | z8 ||[M:2/4] z4 ||[M:4/4] z8 | z8 | z8 |] %59
w: ||||||||||||||||
w: ||||||||||||||||

